!!!SOCIAL_FUNCTION:	songs of social dances
!!!PDT:	1958
!!!OTL: No_22_Toto_Dance_Song_(b).krn
!!!REG: Northern California
!!!LANG: Non-Tone
!!!LING_GROUP: Penutian
**kern
*staff1
=1-
*clefF4
*k[b-e-]
*M2/4
8B-\L
16c\L
16B-\JJ
4c\
=2
12c\L
12B-\
12B-\J
8B-\
8r
=3
8d\L
16d\L
16c\JJ
4c\
=4
16c\LL
16B-\
16B-\
16B-\JJ
8B-\
8r
=5
8c\L
16c\L
16B-\JJ
4c\
=6
16c\LL
16B-\
16B-\
16B-\JJ
8B-\
8r
=7
8B-\L
8c\J
4c\
=8
*M3/4
16c\LL
16B-\
(16G\
16F\JJ)
8.F\L
16G\Jk
16G\
16r
8B-\
=9
8.c\L
16d\Jk
16c\LL
16B-\
16c\
16B-\JJ
8B-\
8r
=10
*M2/4
8d\L
16d\L
16c\JJ
4c\
=11
16c\LL
16B-\
16B-\
16B-\JJ
8B-\
8r
=12
8d\L
16c\L
16B-\JJ
4c\
=13
16c\LL
16B-\
16B-\
16B-\JJ
8B-\
8r
=14
8B-\L
8c\J
4c\
=15
16c\LL
16B-\
(16G\
16F\JJ)
8F\
8r
=16
8c\L
16c\L
16d\JJ
8.c\L
16d\Jk
=17
16d\LL
16c\
(16d\
16c\JJ)
8B-\
8r
=18
8d\L
16d\L
16c\JJ
4c\
=19
16c\LL
16B-\
16B-\
16B-\JJ
8B-\
8r
=20
8B-\L
8c\J
4c\
=21
16c\LL
16B-\
16B-\
16B-\JJ
8B-\
8r
=22
8B-\L
8c\J
4c\
=23
16c\LL
16B-\
(16G\
16F\JJ)
8F\
8r
=24
8c\L
16c\L
16d\JJ
8.c\L
16d\Jk
=25
16d\LL
16c\
16d\
16c\JJ
8B-\
8r
==
*-
